icons/ic_search.svg

<svg width="24" height="24" viewBox="0 0 24 24" fill="none" xmlns="http://www.w3.org/2000/svg">
<g opacity="0.999">
<path opacity="0.999" d="M15.4289 14.057H14.6999L14.4259 13.783C15.3722 12.7283 15.8935 11.36 15.8889 9.943C15.8889 8.76759 15.5404 7.61857 14.8874 6.64125C14.2343 5.66393 13.3062 4.9022 12.2202 4.45239C11.1343 4.00258 9.93934 3.88488 8.78651 4.1142C7.63368 4.34351 6.57474 4.90952 5.7436 5.74067C4.91245 6.57181 4.34644 7.63075 4.11713 8.78358C3.88781 9.93641 4.00551 11.1313 4.45532 12.2173C4.90513 13.3032 5.66686 14.2314 6.64418 14.8844C7.6215 15.5375 8.77052 15.886 9.94593 15.886C11.3629 15.8905 12.7312 15.3692 13.7859 14.423L14.0599 14.697V15.428L18.6289 20L19.9999 18.629L15.4289 14.057ZM9.94293 14.057C9.12926 14.057 8.33386 13.8157 7.65732 13.3637C6.98077 12.9116 6.45347 12.2691 6.14209 11.5174C5.83071 10.7656 5.74924 9.93844 5.90798 9.1404C6.06672 8.34236 6.45854 7.60932 7.0339 7.03396C7.60925 6.45861 8.34229 6.06679 9.14033 5.90805C9.93837 5.74931 10.7656 5.83078 11.5173 6.14216C12.269 6.45354 12.9115 6.98084 13.3636 7.65739C13.8156 8.33393 14.0569 9.12933 14.0569 9.943C14.0588 10.4838 13.9536 11.0196 13.7475 11.5195C13.5414 12.0195 13.2385 12.4738 12.8561 12.8562C12.4737 13.2386 12.0194 13.5415 11.5195 13.7476C11.0195 13.9537 10.4837 14.0589 9.94293 14.057Z" fill="#222532"/>
</g>
</svg>

<?xml version="1.0" encoding="utf-8"?>
<!-- Generator: Adobe Illustrator 24.0.0, SVG Export Plug-In . SVG Version: 6.00 Build 0)  -->
<svg version="1.1" id="Layer_1" xmlns="http://www.w3.org/2000/svg" xmlns:xlink="http://www.w3.org/1999/xlink" x="0px" y="0px"
	 viewBox="0 0 24 24" style="enable-background:new 0 0 24 24;" xml:space="preserve">
<style type="text/css">
	.st0{opacity:0.999;}
	.st1{opacity:0.999;fill:#222532;enable-background:new    ;}
</style>
<g class="st0">
	<path class="st1" d="M15.4,14.1h-0.7l-0.3-0.3c0.9-1.1,1.5-2.4,1.5-3.8c0-1.2-0.3-2.3-1-3.3c-0.7-1-1.6-1.7-2.7-2.2
		C11.1,4,9.9,3.9,8.8,4.1c-1.2,0.2-2.2,0.8-3,1.6c-0.8,0.8-1.4,1.9-1.6,3C3.9,9.9,4,11.1,4.5,12.2c0.4,1.1,1.2,2,2.2,2.7
		c1,0.7,2.1,1,3.3,1c1.4,0,2.8-0.5,3.8-1.5l0.3,0.3v0.7l4.6,4.6l1.4-1.4L15.4,14.1z M9.9,14.1c-0.8,0-1.6-0.2-2.3-0.7
		c-0.7-0.5-1.2-1.1-1.5-1.8c-0.3-0.8-0.4-1.6-0.2-2.4S6.5,7.6,7,7c0.6-0.6,1.3-1,2.1-1.1c0.8-0.2,1.6-0.1,2.4,0.2
		c0.8,0.3,1.4,0.8,1.8,1.5c0.5,0.7,0.7,1.5,0.7,2.3c0,0.5-0.1,1.1-0.3,1.6c-0.2,0.5-0.5,1-0.9,1.3c-0.4,0.4-0.8,0.7-1.3,0.9
		C11,14,10.5,14.1,9.9,14.1z"/>
</g>
</svg>
